X:1
T:Title
%%score { 1 | 2 }
L:1/8
Q:1/4=110
M:4/4
K:Ab
V:1 treble nm="Grand Piano"
V:2 bass 
V:1
 [CE]2 [CE]2 [CE]2 [_C=D][=CE] | [CA]2 [CA]2 [CA]4 | B2 B2 B2 AB | [Ec]2 [Ae]2 [Ae]4 | %4
w: E.~E.~Meyer * * * *||||
 [CE]2 [CE]2 [CE]2 [_C=D][=CE] | [DF]2 [Fd]2 [Fd]4 | c2 c2 B2 B2 | [CA]6 z2 | e2 e2 e2 [Ec]A | %9
w: |||||
 A2 G2 G4 | d2 d2 d2 cB | [EA]2 [EB]2 [Ec]4 | e2 e2 e2 [Ec][CEA] | [A,DF]2 [Fd]2 [Fd]4 | %14
w: |||||
 c2 c2 B2 B2 | [CA]6 z2 |] %16
w: ||
V:2
 [A,,A,]2 [A,,A,]2 [A,,A,]2 [A,,A,][A,,A,] | [A,,E,]2 [A,,E,]2 [A,,E,]4 | %2
 [E,G,E]2 [E,G,E]2 [E,G,E]2 [E,G,E][E,G,E] | [A,,A,]2 [A,C]2 [A,C]4 | %4
 [A,,A,]2 [A,,A,]2 [A,,A,]2 [A,,A,][A,,A,] | [D,A,]2 [D,A,]2 [D,A,]4 | %6
 [E,A,E]2 [E,A,E]2 [E,G,D]2 [E,G,D]2 | [A,,A,]6 z2 | [A,,CA]2 [A,,CA]2 [A,,CA]2 [A,,A,][E,CE] | %9
 [E,CE]2 [E,DE]2 [E,DE]4 | [E,B,E]2 [E,B,E]2 [E,B,E]2 [E,A,E][E,G,E] | [C,A,]2 [B,,G,]2 [A,,A,]4 | %12
 [A,,CA]2 [A,,CA]2 [A,,CA]2 [A,,A,]A,, | D,2 [D,A,]2 [D,A,]4 | %14
 [E,A,E]2 [E,A,E]2 [E,G,D]2 [E,G,D]2 | [A,,A,]6 z2 |] %16

